X: 182
M: C|
L: 1/8
K: A
V: 1
V: 2 clef=bass middle=d
a2a2 a2a2 | a2a2 d2e2 | a2a2 c'2a2 | d2d2 e2E2 |
c2A2 c2A2 | A2A2 d2e2 | c2c2 d2d2 | e2E2 A2A2 |]


